X: 20881
T: Jon Reville's
R: polka
M: 2/4
K: Gmajor
[G2g2] g>e|dB Be|cA Ae|dB AB/A/|
G2 g>e|dB Be|dB AB/A/|G2 ba|
g2 ge|dB Be|cA Ae|dB AB/A/|
G2 g>e|dB Be|dB AB/A/|GA Bd|
e2 de|g2 eg|a2 ba|g2 fd|
e2 de|ga fg|eA AB|A2 B/c/d|
e2 de|g2 eg|a2 ba|g2 eg|
a2 ge|a2 ge|a2 ge|a2 ba||

